!!!COM: Martin, Frank
!!!OTL: Ballad for Piano and Orchestra
!!!OMV:
!!!example: 555
!!!work: Mai-21
**kern	**dynam	**kern	**dynam	**kern	**dynam	**kern	**dynam	**kern	**dynam	**kern	**kern	**dynam
*part6	*part6	*part5	*part5	*part4	*part4	*part3	*part3	*part2	*part2	*part1	*part1	*part1
*staff7	*	*staff6	*	*staff5	*	*staff4	*	*staff3	*	*staff2	*staff1	*
*I"Contrabass	*	*I"Violoncello	*	*I"Viola	*	*I"Violin II	*	*I"Violin I	*	*I"Piano	*	*
*I'Cb.	*	*I'Vc.	*	*I'Vla.	*	*I'Vln. II	*	*I'Vln. I	*	*I'Pno.	*	*
*clefF4	*	*clefF4	*	*clefC3	*	*clefG2	*	*clefG2	*	*clefG2	*clefG2	*
*k[]	*	*k[]	*	*k[]	*	*k[]	*	*k[]	*	*k[]	*k[]	*
*C:	*	*C:	*	*C:	*	*C:	*	*C:	*	*C:	*C:	*
*M4/4	*	*M4/4	*	*M4/4	*	*M4/4	*	*M4/4	*	*M4/4	*M4/4	*
*MM121	*	*MM121	*	*MM121	*	*MM121	*	*MM121	*	*MM121	*MM121	*
=1	=1	=1	=1	=1	=1	=1	=1	=1	=1	=1	=1	=1
!LO:TX:t=pizz.	!	!LO:TX:t=pizz.	!	!LO:TX:t=pizz.	!	!	!	!LO:TX:t=pizz.	!	!	!	!
4DD	p	4D 4B	p	4D	p	([1d	pp	4d	p	4r	1r	.
4r	.	4r	.	4r	.	.	.	4r	.	4d 4e 4g	.	.
!	!	!	!	!LO:TX:t=arco	!	!	!	!	!	!	!	!
2r	.	2r	.	(2g	pp	.	.	2r	.	4d 4e 4g	.	.
.	.	.	.	.	.	.	.	.	.	4d 4e 4g	.	.
=2	=2	=2	=2	=2	=2	=2	=2	=2	=2	=2	=2	=2
1r	.	1r	.	2e	.	1d_	.	1r	.	(4d [4e 4g	2r	.
.	.	.	.	.	.	.	.	.	.	4d 4e] 4g	.	.
.	.	.	.	[2e-X	.	.	.	.	.	4d [4e-X 4g	4r	.
.	.	.	.	.	.	.	.	.	.	4d 4e-_ 4g	[4cc#X	.
=3	=3	=3	=3	=3	=3	=3	=3	=3	=3	=3	=3	=3
1r	.	1r	.	4e-])	.	1d_	.	1r	.	4d) 4e-] 4g	2cc#_	.
.	.	.	.	4r	.	.	.	.	.	4d 4e-X 4g	.	.
.	.	.	.	([2b-X	.	.	.	.	.	(4d 4e- [4cc-X	8cc#]	.
.	.	.	.	.	.	.	.	.	.	.	(4cc#X	.
.	.	.	.	.	.	.	.	.	.	4d 4e- 4cc-_	.	.
.	.	.	.	.	.	.	.	.	.	.	16ccnLL	.
.	.	.	.	.	.	.	.	.	.	.	16dd-XJJ	.
=4	=4	=4	=4	=4	=4	=4	=4	=4	=4	=4	=4	=4
1r	.	1r	.	4b-]	.	1d_	.	1r	.	4d 4e-X 4b]	2.cc)	.
.	.	.	.	4a)	.	.	.	.	.	4d 4e- [4a	.	.
.	.	.	.	4r	.	.	.	.	.	4d) 4e- 4a]	.	.
.	.	.	.	([4b-X	.	.	.	.	.	(4d 4e- [4b-X	8r	.
.	.	.	.	.	.	.	.	.	.	.	([8cc#X	.
=5	=5	=5	=5	=5	=5	=5	=5	=5	=5	=5	=5	=5
1r	.	1r	.	4b-]	.	1d_	.	1r	.	4d 4e-X 4b-]	8cc#L]	<
.	.	.	.	.	.	.	.	.	.	.	16ccnL	.
.	.	.	.	.	.	.	.	.	.	.	16dd-XJJ	.
.	.	.	.	4a)	.	.	.	.	.	4d) 4e- 4a	[4cc	.
.	.	.	.	(4b-X	.	.	.	.	.	(4d 4e- 4b	8cc])	.
.	.	.	.	.	.	.	.	.	.	.	(4dd-	.
.	.	.	.	4a)	.	.	.	.	.	4d) 4e- 4a	.	.
.	.	.	.	.	.	.	.	.	.	.	8cc)	.
=6	=6	=6	=6	=6	=6	=6	=6	=6	=6	=6	=6	=6
1r	.	1r	.	[1g-X	>]	2d]	.	1r	.	([4d 4e-X 4g-X	([2cc	[ >
.	.	.	.	.	.	.	.	.	.	4d] 4e- 4g-	.	.
.	.	.	.	.	.	4d-X)	.	.	.	[4d-X 4e- 4g-	8cc]	.
.	.	.	.	.	.	.	.	.	.	.	4.bn)	.
.	.	.	.	.	.	4r	.	.	.	4d-]) 4e- 4g-	.	.
=7	=7	=7	=7	=7	=7	=7	=7	=7	=7	=7	=7	=7
1r	.	1r	.	1g-_	.	(4dn	.	1r	.	(4dn 4e-X 4g-X	4r	]
.	.	.	.	.	.	4d-X)	.	.	.	[4d-X 4e- 4g-	8r	.
.	.	.	.	.	.	.	.	.	.	.	([8cc	.
.	.	.	.	.	.	4r	.	.	.	4d-]) 4e- 4g-	4.cc]	.
.	.	.	.	.	.	([4dn	.	.	.	([4dn 4e- 4g-	.	.
.	.	.	.	.	.	.	.	.	.	.	8a-X	.
=8	=8	=8	=8	=8	=8	=8	=8	=8	=8	=8	=8	=8
1r	.	1r	.	1g-_	.	4d]	.	1r	.	4d] 4e-X 4g-X	2.cc-X	.
.	.	.	.	.	.	2.d-X	.	.	.	[4d-X 4e- 4g-	.	.
.	.	.	.	.	.	.	.	.	.	4d-_ 4e- 4g-	.	.
.	.	.	.	.	.	.	.	.	.	4d-] 4e- 4g-	4a-X)	.
=9	=9	=9	=9	=9	=9	=9	=9	=9	=9	=9	=9	=9
1r	.	1r	.	2g-_	.	8c)	.	1r	.	4cn) 4e-X 4g-X	4r	.
.	.	.	.	.	.	8r	.	.	.	.	.	.
.	.	.	.	.	.	(2d-X	.	.	.	([4d-X 4e- 4g-	(8a-XL	.
.	.	.	.	.	.	.	.	.	.	.	[8ccnJ	.
.	.	.	.	8g-]	.	.	.	.	.	4d-] 4e- 4g-	8ccL]	.
.	.	.	.	8r	.	.	.	.	.	.	8a-	.
.	.	.	.	([4a-X	.	[4c	.	.	.	[4c 4e- 4g-	8cc	.
.	.	.	.	.	.	.	.	.	.	.	[8ffJ	.
=10	=10	=10	=10	=10	=10	=10	=10	=10	=10	=10	=10	=10
1r	.	1r	.	2.a-]	.	4c]	.	1r	.	4c] 4e-X 4g-X	6ff]	.
.	.	.	.	.	.	.	.	.	.	.	12ff-X)	.
.	.	.	.	.	.	2c-X	.	.	.	[4c-X 4e- 4g-	(2ff-	.
.	.	.	.	.	.	.	.	.	.	4c-]) 4e- 4g-	.	.
.	.	.	.	4fn)	.	8c-)	.	.	.	4c- 4f 4a	4ddn)	.
.	.	.	.	.	.	8r	.	.	.	.	.	.
=	=	=	=	=	=	=	=	=	=	=	=	=
*-	*-	*-	*-	*-	*-	*-	*-	*-	*-	*-	*-	*-
!!!system-decoration: {(s1,s2)}[(s3,s4,s5,s6,s7)]
!!!CDT: 1890/09/15-1974/11/21
!!!CBL: Geneva, Switzerland
!!!CDL: Naarden, Netherlands
!!!CNT: Swiss
!!!AGN: Orchestral; Concerto
!!!MCN: Ansermet, Ernest
!!!MDT: 1944/02/01
!!!MGN: unknown
!!!MLC: Zürich, Switzerland
!!!MPD: 1944
!!!MPN: Frey, Walter
!!!ODT: 1939
!!!PDT: 1948
!!!excerpt-start-measure: 1
!!!excerpt-end-measure: 10
!!!excerpt-start-time: 0:00
!!!excerpt-end-time: 0:40
!!!EEV: 2020/01/22
!!!ONB: Converted from MusicXML on 2020/01/22
